svgs/sharp-light/yen-sign.svg

<svg xmlns="http://www.w3.org/2000/svg" viewBox="0 0 320 512"><!--! Font Awesome Pro 6.4.0 by @fontawesome - https://fontawesome.com License - https://fontawesome.com/license (Commercial License) Copyright 2023 Fonticons, Inc. --><path d="M-3.2 32l128 192H48 32v32H48h96v64H48 32v32H48h96V464v16h32V464 352h96 16V320H272 176V256h96 16V224H272 195.2l128-192H284.8L160 219.2 35.2 32H-3.2z"/></svg>

<svg xmlns="http://www.w3.org/2000/svg" viewBox="0 0 320 512"><!--! Font Awesome Pro 6.6.0 by @fontawesome - https://fontawesome.com License - https://fontawesome.com/license (Commercial License) Copyright 2024 Fonticons, Inc. --><path d="M-3.2 32l128 192L48 224l-16 0 0 32 16 0 96 0 0 64-96 0-16 0 0 32 16 0 96 0 0 112 0 16 32 0 0-16 0-112 96 0 16 0 0-32-16 0-96 0 0-64 96 0 16 0 0-32-16 0-76.8 0 128-192-38.5 0L160 219.2 35.2 32-3.2 32z"/></svg>
